X:190
T:Trip to the Oatlands, A. TS.190
M:6/8
L:1/8
Q:3/8=120
S:Thomas Sands’ MS,1810,Lincolnshire
R:jig
N:Also in William Mittel MS 1791 (Kent)
O:England;Lincolnshire
Z:vmp.Ruairidh Greig, 2011
K:F
AB|c>dc cAF|c>dc cAF|fed cdA|BGGG2 A/B/|
cdc cAF|cdc cAF|fed cdB|AFFF2:|
|:c|f3g3|agf edc|fed cBA|BGGG2c|
fef gfg|agf edc|fed cdB|AFFF2:|]

